public/flags/CY.svg

<svg fill="none" height="53" viewBox="0 0 61 53" width="61" xmlns="http://www.w3.org/2000/svg" xmlns:xlink="http://www.w3.org/1999/xlink"><mask id="a" height="43" maskUnits="userSpaceOnUse" width="59" x="1" y="3"><rect fill="#fff" height="41.4393" rx="3.7125" stroke="#fff" stroke-width="1.06071" width="57.9393" x="1.53036" y="3.53036"/></mask><rect fill="#fff" height="41.4393" rx="3.7125" stroke="#f5f5f5" stroke-width="1.06071" width="57.9393" x="1.53036" y="3.53036"/><g mask="url(#a)"><path clip-rule="evenodd" d="m43.1429 10.0833c.7657-.38606 1.5472.4928 1.0743 1.2082l-.9325 1.4106c-.0936.1416-.2144.2633-.3553.3581l-3.8844 2.6115c-.0774.0521-.1495.1117-.2152.1779l-.3185.3212c-.5467.5514-.5467 1.4403 0 1.9917l.8346.8417c.5467.5513.5467 1.4403 0 1.9916l-1.0986 1.1079c-.4314.4351-1.0939.5428-1.641.267l-.6206-.313c-.7008-.3533-1.5553-.0685-1.9039.6346l-.5117 1.0322c-.1668.3364-.4606.5927-.8165.7124l-3.4391 1.156c-.1452.0489-.2974.0738-.4506.0738h-1.7008c-.5374 0-1.0284.3045-1.2671.786l-.3826.7716c-.3486.7031-1.203.988-1.9038.6346l-4.1422-2.0886c-.1361-.0687-.2602-.1588-.3675-.267l-2.2375-2.2565c-.2626-.2649-.41-.6228-.41-.9958v-1.2594c0-.5477.4439-.9916.9916-.9916.2644 0 .5179-.1056.7041-.2934l2.1036-2.1215c.2656-.2678.6271-.4184 1.0043-.4184h1.1981c.6101 0 1.1514-.3912 1.3429-.9705l.6905-2.0891c.2245-.6794.9211-1.084 1.6225-.9426l5.4804 1.1054c.207.0418.4206.0366.6254-.015l5.1565-1.3c.1007-.0254.1983-.0618.291-.1086l2.67-1.3463z" fill="#e7832c" fill-rule="evenodd"/><path clip-rule="evenodd" d="m30.5 37c.7758 0 1.4047-.6343 1.4047-1.4167s-.6289-1.4166-1.4047-1.4166c-.7759 0-1.4048.6342-1.4048 1.4166s.6289 1.4167 1.4048 1.4167z" fill="#445128" fill-rule="evenodd"/><g stroke="#445128" stroke-linecap="round" stroke-width="2.82857"><path d="m34.7144 34.1667s4.2142-1.4167 5.619-4.25" opacity=".75"/><path d="m26.2856 34.1667s-4.2142-1.4167-5.619-4.25" opacity=".75"/></g></g></svg>

<svg width="61" height="53" viewBox="0 0 61 53" fill="none" xmlns="http://www.w3.org/2000/svg">
<rect x="1.53036" y="3.53036" width="57.9393" height="41.4393" rx="3.7125" fill="white" stroke="#F5F5F5" stroke-width="1.06071"/>
<mask id="mask0" mask-type="alpha" maskUnits="userSpaceOnUse" x="1" y="3" width="59" height="43">
<rect x="1.53036" y="3.53036" width="57.9393" height="41.4393" rx="3.7125" fill="white" stroke="white" stroke-width="1.06071"/>
</mask>
<g mask="url(#mask0)">
<path fill-rule="evenodd" clip-rule="evenodd" d="M43.1429 10.0833C43.9086 9.69724 44.6901 10.5761 44.2172 11.2915L43.2847 12.7021C43.1911 12.8437 43.0703 12.9654 42.9294 13.0602L39.045 15.6717C38.9676 15.7238 38.8955 15.7834 38.8298 15.8496L38.5113 16.1708C37.9646 16.7222 37.9646 17.6111 38.5113 18.1625L39.3459 19.0042C39.8926 19.5555 39.8926 20.4445 39.3459 20.9958L38.2473 22.1037C37.8159 22.5388 37.1534 22.6465 36.6063 22.3707L35.9857 22.0577C35.2849 21.7044 34.4304 21.9892 34.0818 22.6923L33.5701 23.7245C33.4033 24.0609 33.1095 24.3172 32.7536 24.4369L29.3145 25.5929C29.1693 25.6418 29.0171 25.6667 28.8639 25.6667H27.1631C26.6257 25.6667 26.1347 25.9712 25.896 26.4527L25.5134 27.2243C25.1648 27.9274 24.3104 28.2123 23.6096 27.8589L19.4674 25.7703C19.3313 25.7016 19.2072 25.6115 19.0999 25.5033L16.8624 23.2468C16.5998 22.9819 16.4524 22.624 16.4524 22.251V20.9916C16.4524 20.4439 16.8963 20 17.444 20V20C17.7084 20 17.9619 19.8944 18.1481 19.7066L20.2517 17.5851C20.5173 17.3173 20.8788 17.1667 21.256 17.1667H22.4541C23.0642 17.1667 23.6055 16.7755 23.797 16.1962L24.4875 14.1071C24.712 13.4277 25.4086 13.0231 26.11 13.1645L31.5904 14.2699C31.7974 14.3117 32.011 14.3065 32.2158 14.2549L37.3723 12.9549C37.473 12.9295 37.5706 12.8931 37.6633 12.8463L40.3333 11.5L43.1429 10.0833V10.0833Z" fill="#E7832C"/>
<path fill-rule="evenodd" clip-rule="evenodd" d="M30.5 37C31.2758 37 31.9047 36.3657 31.9047 35.5833C31.9047 34.8009 31.2758 34.1667 30.5 34.1667C29.7241 34.1667 29.0952 34.8009 29.0952 35.5833C29.0952 36.3657 29.7241 37 30.5 37Z" fill="#445128"/>
<path opacity="0.75" d="M34.7144 34.1667C34.7144 34.1667 38.9286 32.75 40.3334 29.9167" stroke="#445128" stroke-width="2.82857" stroke-linecap="round"/>
<path opacity="0.75" d="M26.2856 34.1667C26.2856 34.1667 22.0714 32.75 20.6666 29.9167" stroke="#445128" stroke-width="2.82857" stroke-linecap="round"/>
</g>
</svg>
